!!!OTL: 634. Voeglein im hohen Baum.
!!!ARE: Europa, Mitteleuropa, Deutschland
!!!SCT: B0634
!!!TXL: @@DE
!!!YEM: Copyright 1995, estate of Helmut Schaffrath.
**kern	**text
*ICvox	*
*Ivox	*
*clefG2	*
*M3/4	*
*k[f#]	*
*G:	*
=1	=1
!LO:TX:a:t=Ruhig.	!
{4g	Vög-
4g	-lein
4g	im
=2	=2
4.b	ho-
8a	-hen
4g}	Baum,
=3	=3
{4b	klein
4b	iſt's
4b	man
=4	=4
4.dd	ſieht
8cc	es
4b}	kaum,
=5	=5
{4dd	ſingt
4cc	doch
4b	ſo
=6	=6
2a	ſchön,
4r}	.
=7	=7
{4a	daß
4g	wohl
4f#	von
=8	=8
4.g	nah'
8a	und
4b}	fern'
=9	=9
{4cc	al-
4b	-le
4a	die
=10	=10
4.b	Leu-
8cc	-te
4dd}	gern
=11	=11
{8ddL	hor-
8ccJ	.
4b	-chen
4a	und
=12	=12
2g	ſtehn.
4r}	.
==	==
!!!AGN: Kinder - Lied, Tier; Moral
!!!GTL: Kinderlieder
!!!ONB: ESAC (Essen Associative Code) Database: BOEHME
!!!AMT: simple triple
!!!AIN: vox
!!!EED: Helmut Schaffrath
!!!EEV: 1.0
!!Volksmelodie: Wenn ich ein Vöglein wär".
!!@@COMMENT:"Gedicht von W. Hey, als Superintendent ʒu Jchtershauſen ♱ 1854."
!!@@END:
!!!Text: W. Hey
!!!URL-scan: https://archive.org/details/BoehmeVtLieder1895/page/n497/mode/2up
!!!ENC: Anna Maria Matuszewska
!!!EEV: 2024/16/07
*-	*-
